X:5
T:St. Anne's Reel
M:4/4
L:1/8
Z:abc-transcription Josh Larios <hades@elsewhere.org>, 2014.01.13
B:Complete Tractor, p.184
K:D
e2 |: "D"f2 fg fe dB | A2 F2 F2 A2 | "G"B2 G2 G2 B2 | "D"A2 F2 F2 e2 |
"D"f2 fg fe dB | A2 F2 F2 A2 | "G"BG Bd "A"cA ce | "D"f2 d2 d2 e2 ::
"D"fd Ad fd fa | "Em"ag gf g2 gf | "A"ed cB Ac eg | "D"ba a^g a2 a=g |
"D"fd Ad fd fa | "Em"ag gf g2 gf | "A"ed cB Ac ea | "D"f2 d2 d2 :|

